X:122
T:Reel 122
M:4/4
K:Dmaj
L:1/8
D>C (3CB,C DFED|C2B,E FGFE|D>C (3CB,A, EA,FA,|B,A,B,C D2FG|A>F (3FEF GEFD|CB,A,E C2FG|AFGE FDEC|DB,A,C D2FG|A>d (3dcd A>F (3FEF |Bee^d eBGE|AGFA defd|ecAc d2FG|A>d (3dcd AFdF|A,>D (3DCD A,DFA|GGFG AFDC|A,D^CD D2FG|
